X:96
T:Captain McDuff
R:Reel
C:Daniel Dow
B:The Athole Collection
M:C|
L:1/8
K:A
a|ecBc A2 EF|Acec B/B/B Ba|ecBc A2 EF|Afec A/A/A A:|
d|cee>f ecae|cee>f ecBd|cee>c acdf|ecBc A/A/A A>d|
cee>f ecae|cee>f ecBd|ceea faef|ecBc A/A/A A||

